X: 1
T: Ballyoran, The
M: 4/4
L: 1/8
R: hornpipe
K: Gmaj
dBcA BGAF|DGGF GABC|dggg bgdB|cABG A2 Bc|
dBcA BGAF|DGGF GABc|dggg fgaf|gbaf G2 Bc:|
dggg bggg|dgbg edBG|FGAB cBce|agfe dcBc|
dggg bggg|dgbg edBG|FGAB cADF|1 AGGF G2 Bc:|2 AGGF G2 dc||
BDGB dgfg|eccc Gceg|fddd fgaf|gfga bgdc|
BDGB dgfg|eccc Gceg|fddd fgaf|1 g2 gf g2 dc:|2 g2 gf g4||
